X:1
T:Douleur et pleurs
T:Douleur et pleurs
T:Jean Le Cocq
C:Jean Le Cocq
%%score [ 1 [ 2 3 ] 4 ]
L:1/8
Q:1/4=96
M:2/2
K:C
V:1 treble nm="Superius" snm="S"
V:2 treble-8 nm="Tenor 1" snm="T 1"
V:3 treble-8 nm="Tenor 2" snm="T 2"
V:4 bass nm="Bassus" snm="B"
V:1
 A8 | G4 c4 | B8 | z2 G2 c3 c | B2 A2 GFED | C4 z4 | G4 c3 c | B2 A2 A2 G2 | FE A4 G2 | A8 | %10
w: Dou-|leur et|pleurs|par trop vous|me for- cez, _ _ _|_|dou- leur et|pleurs par trop vous|me _ _ for-|cez,|
 z2 A2 c4- | c2 c2 B4- | B2 G2 A2 B2 | c2 A2 GABc | d2 c4 BA | G4 z2 G2 | G2 G2 C2 G2 | %17
w: de plus|_ po- voir|_ al- ler veoir|ma mais- tres- * * *||se, pour|la te- nir au|
 c2 BA G2 c2- | c2 BA B2 G2- | GFED E2 C2 | G3 F E2 G2 | A2 G2 F3 G | A2 G3 ABc | d2 c4 B2 | %24
w: bruict _ _ _ de|_ _ _ cha- *|* * * * * ste|té, _ _ au|bruict de cha- *||* * ste-|
 c4 z4 | z2 G2 A3 B | c2 GG A2 B2 | c2 G4 c2 | c2 B2 A2 G2 | FE E4 D2 | E4 z4 | z8 | z8 | z4 C4 |: %34
w: te,|lan- gu'en- nuy-|eu- se, lan- gu'en- nuy-|eu- se qui|te gri- voit li-|es- * * *|se,|||lan-|
 D2 E2 F2 C2 | z4 z2 G2 | A2 B2 c2 GG | A2 c2 BA A2- |1 A2 G2 A2 C2 :|2 A2 c2 B2 A2- || %40
w: gu'en- nuy- eu- se,|lan-|gu'en- nuy- eu- se, qui|te gri- voit _ li-|* es- se, lan-|te gri- voit li-|
"^#" A2 G2 [GA]4 | A8 |] %42
w: * es- se.|_|
V:2
 c8 | e3 f g4 | z2 d2 e2 g2 | f2 d2 e2 c2 | d2 d2 ed cB | A2 c2 f3 f | e2 d2 cd ef | g2 f4 e2- | %8
w: Dou-|leur et pleurs|par trop vous|me for- cez, vous|me for- cez, _ _ _|_ dou- leur et|pleurs par trop _ _ _|_ me _|
 e2 d2 e4- | e4 z2 f2 | f2 f2 e2 e2 | g6 g2 | d2 d2 f4- | f2 f2 e2 d2 | fe e4 d2 | e8 | %16
w: _ for- cez,|_ de|plus po- voir al-|ler veoir|ma mais- tres-|||se,|
 z2 g2 g2 g2 | c2 g3 fed | e2 dd d2 d2 | G2 d2 g3 f | ed cd e2 d2- | d2 c2 d4 | e3 f gf de | %23
w: pour la te-|nir, _ _ _ _|_ _ pour la te-|nir au bruict _|_ _ _ _ _ _|* de cha-||
 fd ef g4 | e2 c2 d2 e2 | f2 c4 f2 | f2 e2 d2 d2 | c2 d2 e4 | d4 z4 | z2 G2 A3 B | c2 G2 z2 c2- | %31
w: * * * * ste-|té, lan- gu'en- nuy-|eu- * se|qui te gri- voit|li- es- *|se,|li- es- *|* se, qui|
 c2 f4 e2 | d2 c2 BA A2- | A2 G2 A4 |: z4 z2 c2- | c2 f4 e2 | d2 d2 c2 B2 | A2 A2 Bc dc/d/ |1 %38
w: _ te gri-|voit li- es- * *|* * se,|lan-|* gu'en- nuy-|eu- se qui te|gri- voit li- * es- * *|
 e8 :|2 A2 A2 Bc dc/d/ || e8 | e8 |] %42
w: se,|gri- voit li- * * * *|es-|se.|
V:3
 A8 | B4 c4 | d4 z2 G2 | c2 B2 A2 G2- | G2 F2 E2 G2 | A2 c4 BA | G2 B2 AB cB/c/ | d3 c B2 G2 | %8
w: Dou-|leur et|pleurs par|trop vous me for-|* cez, _ _|_ _ _ _|* vous me _ _ _ _|_ _ _ _|
 A4 B4 | A4 z2 A2 | c6 c2 | G4 z2 G2 | d6 d2 | c6 B2 | A2 G2 A3 B | c2 G2 G2 G2 | C2 G2 c3 B | %17
w: for- *|cez, de|plus po-|voir al-|ler veoir|ma mais-|tres- * * *|se, pour la te-|nir au bruict de|
 A2 G2 c4 | G4 z4 | z2 G2 G2 G2 | CDEF GA Bc | AG c4 B2 | c6 B2 | AB cB/c/ d4 | c4 G4 | z8 | %26
w: chas- * ste-|té,|pour la te-|nir _ _ _ _ _ _ _|_ _ nir au|bruict de|chas- * * * * *|ste- té,||
 z4 z2 G2 | A2 B2 c4 | G2 G2 c3 B | A2 G2 F4 | E4 z2 G2 | A3 B c3 B | A2 G2 F2 E2 | D3 E F2 EF |: %34
w: lan-|g'en- nuy- eu-|se, qui te gri-|voit li- es-|se, qui|te gri- voit li-|es- * * *||
 G4 z2 G2 | A3 B c2 G2 | z2 G2 A2 B2 | c2 c2 dc BA |1 B4 A4 :|2 c2 c2 dc BA || B4 A4- | A8 |] %42
w: se, lan-|gu'en- nuy- eu- se|qui te gri-|voit li- es- * * *|* se,|voit li- es- * * *|* se.|_|
V:4
 A,,8 | E,4 C,4 | G,2 G,2 G,2 E,2 | F,2 G,2 C,4 | z4 C,4 | F,3 E, D,2 D,2 | C,2 G,2 A,3 A, | %7
w: Dou-|leur et|pleurs par trop vous|me for- cez,|par|trop vous me for-|cez, par trop vous|
 G,2 D,2 E,4 | F,4 E,4 | z2 A,,2 F,4- | F,2 F,2 C,4- | C,2 C,2 G,4- | G,2 G,2 F,2 D,2 | %13
w: me _ for-|* cez,|de plus|_ po- voir|_ al- ler|_ veoir ma mais-|
 F,4 G,3 F, | D,2 E,2 F,4 | C,8- | C,4 z2 E,2 | F,2 G,2 C,4 | z4 G,4 | G,2 G,2 C,2 G,2- | %20
w: tres- * *||se,|_ pour|la te- nir,|pour|la te- nir _|
 G,F, E,D, C,2 G,2 | F,2 E,2 D,4 | C,3 D, E,F, G,2 | F,2 A,2 G,4 | C,4 z2 C,2 | D,2 E,2 F,4 | %26
w: _ _ _ _ _ au|bruict de chas-|ste- * * * *||té, lan-|gu'n- nuy- eu-|
 C,4 z4 | z8 | z8 | z8 | C,4 D,2 E,2 | F,4 C,2 C,2 | F,3 E, D,2 C,2 | _B,,4 A,,4 |: %34
w: se,||||lan- gu'en- nuy-|eu- se qui|te gri- voit li-|es- se,|
 z2 C,2 D,2 E,2 | F,4 C,2 E,2 | F,2 G,2 C,2 G,2 | F,3 E, D,2 F,2 |1 E,4 A,,4 :|2 F,3 E, D,2 F,2 || %40
w: lan- gu'en- nuy-|eu- se qui|te gri- voit li-|es- * * *|* se,|es- * * *|
 E,4 A,,4- | A,,8 |] %42
w: * se.|_|

